**kern	**silbe	**harmony	**phrase	**leadinstrument	**rhyme	**timestamp	**harte
*ICvox	*	*M4/4	*	*	*	*	*M4/4
*VRlead	*	*	*	*	*	*	*
*Hstimme	*	*	*	*	*	*	*
*D:	*	*D:	*	*	*	*	*D:
*M4/4	*	*	*	*	*	*	*
*clefF4	*	*	*	*	*	*	*
r;	.	1r;	.	r	.	0	N.C.
=1	=1	=1	=1	=1	=1	=1	=1
*>Letter>A	*>Letter>A	*>Letter>A	*>Letter>A	*>Letter>A	*>Letter>A	*>Letter>A	*>Letter>A
*>Label>Intro	*>Label>Intro	*>Label>Intro	*>Label>Intro	*>Label>Intro	*>Label>Intro	*>Label>Intro	*>Label>Intro
1r	.	1N	newline	guitar	.	1.012	N.C.
=2	=2	=2	=2	=2	=2	=2	=2
1r	.	1DM	.	guitar	.	2.075	D:maj
=3	=3	=3	=3	=3	=3	=3	=3
1r	.	1DM	.	guitar	.	3.019	D:maj
=4	=4	=4	=4	=4	=4	=4	=4
1r	.	1DM	.	guitar	.	3.964	D:maj
=5	=5	=5	=5	=5	=5	=5	=5
2r	.	1DM	.	guitar	.	4.908	D:maj
4F#	Hap-	.	.	.	.	.	.
4G	-py	.	.	.	.	.	.
=6	=6	=6	=6	=6	=6	=6	=6
*>Letter>B	*>Letter>B	*>Letter>B	*>Letter>B	*>Letter>B	*>Letter>B	*>Letter>B	*>Letter>B
*>Label>Verse	*>Label>Verse	*>Label>Verse	*>Label>Verse	*>Label>Verse	*>Label>Verse	*>Label>Verse	*>Label>Verse
4A	Jack	1DM	newline	voice	.	5.853	D:maj
4r	.	.	.	.	.	.	.
4F#	was-	.	.	.	.	.	.
4G	-'nt	.	.	.	.	.	.
=7	=7	=7	=7	=7	=7	=7	=7
2A	old	1DM	.	voice	.	6.793	D:maj
4F#	but	.	.	.	.	.	.
4A	he	.	.	.	.	.	.
=8	=8	=8	=8	=8	=8	=8	=8
*M2/4	*	*M2/4	*M2/4	*M2/4	*	*M2/4	*M2/4
4G	was	2AM	.	voice	.	7.733	A:maj
4C#	a	.	.	.	.	.	.
=9	=9	=9	=9	=9	=9	=9	=9
*M4/4	*	*M4/4	*M4/4	*M4/4	*	*M4/4	*M4/4
4D	man	1DM	newline	guitar	A	8.204	D:maj
4r	.	.	.	.	.	.	.
2r	.	.	.	.	.	.	.
=10	=10	=10	=10	=10	=10	=10	=10
1r	.	1DM	.	guitar	.	9.139	D:maj
=11	=11	=11	=11	=11	=11	=11	=11
1r	.	1DM	.	guitar	.	10.074	D:maj
=12	=12	=12	=12	=12	=12	=12	=12
2r	.	1DM	.	guitar	.	11.009	D:maj
4r	.	.	.	.	.	.	.
4F#	He	.	.	.	.	.	.
=13	=13	=13	=13	=13	=13	=13	=13
2A	lived	1DM	newline	voice	.	11.944	D:maj
4F#	in	.	.	.	.	.	.
4G	the	.	.	.	.	.	.
=14	=14	=14	=14	=14	=14	=14	=14
2A	sand	1DM	.	voice	A	12.893	D:maj
4F#	at	.	.	.	.	.	.
4A	the	.	.	.	.	.	.
=15	=15	=15	=15	=15	=15	=15	=15
*M2/4	*	*M2/4	*M2/4	*M2/4	*	*M2/4	*M2/4
4G	Isle	2AM	.	voice	.	13.842	A:maj
4C#	of	.	.	.	.	.	.
=16	=16	=16	=16	=16	=16	=16	=16
*M4/4	*	*M4/4	*M4/4	*M4/4	*	*M4/4	*M4/4
4D	Man	1DM	newline	guitar	A	14.317	D:maj
4r	.	.	.	.	.	.	.
2r	.	.	.	.	.	.	.
=17	=17	=17	=17	=17	=17	=17	=17
1r	.	1DM	.	guitar	.	15.27	D:maj
=18	=18	=18	=18	=18	=18	=18	=18
*>Letter>A	*>Letter>A	*>Letter>A	*>Letter>A	*>Letter>A	*>Letter>A	*>Letter>A	*>Letter>A
*>Label>Trans	*>Label>Trans	*>Label>Trans	*>Label>Trans	*>Label>Trans	*>Label>Trans	*>Label>Trans	*>Label>Trans
1r	.	1N	newline	guitar	.	16.223	N.C.
=19	=19	=19	=19	=19	=19	=19	=19
1r	.	1N	.	guitar	.	17.136	N.C.
=20	=20	=20	=20	=20	=20	=20	=20
1r	.	1DM	.	guitar	.	18.05	D:maj
=21	=21	=21	=21	=21	=21	=21	=21
2r	.	1DM	.	guitar	.	18.963	D:maj
4r	.	.	.	.	.	.	.
4G	The	.	.	.	.	.	.
=22	=22	=22	=22	=22	=22	=22	=22
*>Letter>B	*>Letter>B	*>Letter>B	*>Letter>B	*>Letter>B	*>Letter>B	*>Letter>B	*>Letter>B
*>Label>Verse	*>Label>Verse	*>Label>Verse	*>Label>Verse	*>Label>Verse	*>Label>Verse	*>Label>Verse	*>Label>Verse
2A	kids	1DM	newline	voice	.	19.876	D:maj
8F#	would	.	.	.	.	.	.
4.G	all	.	.	.	.	.	.
=23	=23	=23	=23	=23	=23	=23	=23
2A	sing	1DM	.	voice	B	20.818	D:maj
4F#	he	.	.	.	.	.	.
4A	would	.	.	.	.	.	.
=24	=24	=24	=24	=24	=24	=24	=24
*M2/4	*	*M2/4	*M2/4	*M2/4	*	*M2/4	*M2/4
4G	take	2AM	.	voice	.	21.761	A:maj
8C#	the	.	.	.	.	.	.
[8E	wrong	.	.	.	.	.	.
=25	=25	=25	=25	=25	=25	=25	=25
*M4/4	*	*M4/4	*M4/4	*M4/4	*	*M4/4	*M4/4
4E]	_	1DM	newline	guitar	.	22.232	D:maj
2.D	key	.	.	.	B	.	.
=26	=26	=26	=26	=26	=26	=26	=26
1r	.	1DM	.	guitar	.	23.148	D:maj
=27	=27	=27	=27	=27	=27	=27	=27
1r	.	1DM	.	guitar	.	24.065	D:maj
=28	=28	=28	=28	=28	=28	=28	=28
2r	.	1DM	.	guitar	.	24.982	D:maj
4F#	So	.	.	.	.	.	.
4G	they	.	.	.	.	.	.
=29	=29	=29	=29	=29	=29	=29	=29
2A	rode	1DM	newline	voice	.	25.898	D:maj
4F#	on	.	.	.	.	.	.
4G	his	.	.	.	.	.	.
=30	=30	=30	=30	=30	=30	=30	=30
2A	head	1DM	.	voice	.	26.824	D:maj
4F#	in	.	.	.	.	.	.
4A	their	.	.	.	.	.	.
=31	=31	=31	=31	=31	=31	=31	=31
*M2/4	*	*M2/4	*M2/4	*M2/4	*	*M2/4	*M2/4
4G	fur-	2AM	.	voice	.	27.749	A:maj
8C#	-ry	.	.	.	b	.	.
[8E	don-	.	.	.	.	.	.
=32	=32	=32	=32	=32	=32	=32	=32
*M4/4	*	*M4/4	*M4/4	*M4/4	*	*M4/4	*M4/4
4E]	_	1DM	newline	guitar	.	28.212	D:maj
2D	-key	.	.	.	b	.	.
4r	.	.	.	.	.	.	.
=33	=33	=33	=33	=33	=33	=33	=33
1r	.	1DM	.	guitar	.	29.157	D:maj
=34	=34	=34	=34	=34	=34	=34	=34
*>Letter>C	*>Letter>C	*>Letter>C	*>Letter>C	*>Letter>C	*>Letter>C	*>Letter>C	*>Letter>C
*>Label>Trans	*>Label>Trans	*>Label>Trans	*>Label>Trans	*>Label>Trans	*>Label>Trans	*>Label>Trans	*>Label>Trans
1r	.	1DM	newline	guitar	.	30.102	D:maj
=35	=35	=35	=35	=35	=35	=35	=35
1r	.	1DM	.	guitar	.	31.015	D:maj
=36	=36	=36	=36	=36	=36	=36	=36
1r	.	1DM	.	guitar	.	31.928	D:maj
=37	=37	=37	=37	=37	=37	=37	=37
1r	.	1DM	.	guitar	.	32.842	D:maj
=38	=38	=38	=38	=38	=38	=38	=38
1r	.	1DM	newline	guitar	.	33.755	D:maj
=39	=39	=39	=39	=39	=39	=39	=39
1r	.	1DM	.	guitar	.	34.659	D:maj
=40	=40	=40	=40	=40	=40	=40	=40
1r	.	1DM	.	guitar	.	35.563	D:maj
=41	=41	=41	=41	=41	=41	=41	=41
*clefG2	*	*	*	*	*	*	*
2r	.	1DM	.	guitar	.	36.467	D:maj
4r	.	.	.	.	.	.	.
4a	The	.	.	.	.	.	.
=42	=42	=42	=42	=42	=42	=42	=42
*>Letter>D	*>Letter>D	*>Letter>D	*>Letter>D	*>Letter>D	*>Letter>D	*>Letter>D	*>Letter>D
*>Label>Prechorus	*>Label>Prechorus	*>Label>Prechorus	*>Label>Prechorus	*>Label>Prechorus	*>Label>Prechorus	*>Label>Prechorus	*>Label>Prechorus
2b	kids	1GM	newline	voice	.	37.371	G:maj
8b	could-	.	.	.	.	.	.
4.b	-n't	.	.	.	.	.	.
=43	=43	=43	=43	=43	=43	=43	=43
4b	hurt	1GM	.	voice	.	38.284	G:maj
4b	Jack	.	.	.	D	.	.
4r	.	.	.	.	.	.	.
4b	they	.	.	.	.	.	.
=44	=44	=44	=44	=44	=44	=44	=44
2cc#	tried	1AM	.	voice	C	39.197	A:maj
2b	tried	.	.	.	C	.	.
=45	=45	=45	=45	=45	=45	=45	=45
4a	tried	1AM	.	voice	C	40.111	A:maj
4r	.	.	.	.	.	.	.
4r	.	.	.	.	.	.	.
4a	They	.	.	.	.	.	.
=46	=46	=46	=46	=46	=46	=46	=46
3b	dropped	1GM	newline	voice	.	41.024	G:maj
3b	things	.	.	.	.	.	.
3b	on	.	.	.	.	.	.
=47	=47	=47	=47	=47	=47	=47	=47
4b	his	1GM	.	voice	.	41.942	G:maj
4b	back	.	.	.	D	.	.
4r	.	.	.	.	.	.	.
4b	they	.	.	.	.	.	.
=48	=48	=48	=48	=48	=48	=48	=48
2cc#	lied	1AM	.	voice	C	42.861	A:maj
2b	lied	.	.	.	C	.	.
=49	=49	=49	=49	=49	=49	=49	=49
2a	lied	1AM	.	voice	C	43.78	A:maj
2g	lied	.	.	.	C	.	.
=50	=50	=50	=50	=50	=50	=50	=50
4g	lied	1AM	newline	guitar	C	44.698	A:maj
[2.a	_	.	.	.	.	.	.
=51	=51	=51	=51	=51	=51	=51	=51
1a]	_	1AM	.	guitar	.	45.581	A:maj
=52	=52	=52	=52	=52	=52	=52	=52
1r	.	1AM	.	guitar	.	46.463	A:maj
=53	=53	=53	=53	=53	=53	=53	=53
*clefF4	*	*	*	*	*	*	*
2r	.	1AM	.	guitar	.	47.345	A:maj
4r	.	.	.	.	.	.	.
4G	They	.	.	.	.	.	.
=54	=54	=54	=54	=54	=54	=54	=54
*>Letter>B	*>Letter>B	*>Letter>B	*>Letter>B	*>Letter>B	*>Letter>B	*>Letter>B	*>Letter>B
*>Label>Chorus	*>Label>Chorus	*>Label>Chorus	*>Label>Chorus	*>Label>Chorus	*>Label>Chorus	*>Label>Chorus	*>Label>Chorus
8A	could-	1DM	newline	voice	.	48.228	D:maj
4.A	-n't	.	.	.	.	.	.
2F#	stop	.	.	.	.	.	.
=55	=55	=55	=55	=55	=55	=55	=55
4A	Jack	1DM	.	voice	D	49.156	D:maj
[4F#	or	.	.	.	.	.	.
8F#]	_	.	.	.	.	.	.
8A	the	.	.	.	.	.	.
[4G	wa-	.	.	.	.	.	.
=56	=56	=56	=56	=56	=56	=56	=56
*M2/4	*	*M2/4	*M2/4	*M2/4	*	*M2/4	*M2/4
8G]	_	2AM	.	voice	.	50.085	A:maj
4C#	-ters	.	.	.	.	.	.
[8E	la-	.	.	.	(D	.	.
=57	=57	=57	=57	=57	=57	=57	=57
*M4/4	*	*M4/4	*M4/4	*M4/4	*	*M4/4	*M4/4
4E]	_	1DM	newline	guitar	.	50.549	D:maj
4D	-pping	.	.	.	d)	.	.
2r	.	.	.	.	.	.	.
=58	=58	=58	=58	=58	=58	=58	=58
1r	.	1DM	.	guitar	.	51.501	D:maj
=59	=59	=59	=59	=59	=59	=59	=59
1r	.	1DM	.	guitar	.	52.452	D:maj
=60	=60	=60	=60	=60	=60	=60	=60
2r	.	1DM	.	guitar	.	53.404	D:maj
4F#	and	.	.	.	.	.	.
4G	they	.	.	.	.	.	.
=61	=61	=61	=61	=61	=61	=61	=61
4A	coul-	1DM	newline	voice	.	54.356	D:maj
4A	-d'nt	.	.	.	.	.	.
4F#	pre-	.	.	.	.	.	.
[4A	-vent	.	.	.	.	.	.
=62	=62	=62	=62	=62	=62	=62	=62
4A]	_	1DM	.	voice	.	55.295	D:maj
2F#	Jack	.	.	.	D	.	.
4A	from	.	.	.	.	.	.
=63	=63	=63	=63	=63	=63	=63	=63
*M2/4	*	*M2/4	*M2/4	*M2/4	*	*M2/4	*M2/4
4G	fee-	2AM	.	voice	.	56.234	A:maj
4C#	-lin'	.	.	.	.	.	.
=64	=64	=64	=64	=64	=64	=64	=64
*M4/4	*	*M4/4	*M4/4	*M4/4	*	*M4/4	*M4/4
4E	ha-	1DM	newline	guitar	(D	56.703	D:maj
2D	-ppy	.	.	.	d)	.	.
4r	.	.	.	.	.	.	.
=65	=65	=65	=65	=65	=65	=65	=65
1r	.	1DM	.	guitar	.	57.645	D:maj
=66	=66	=66	=66	=66	=66	=66	=66
*>Letter>E2	*>Letter>E2	*>Letter>E2	*>Letter>E2	*>Letter>E2	*>Letter>E2	*>Letter>E2	*>Letter>E2
*>Label>Interlude	*>Label>Interlude	*>Label>Interlude	*>Label>Interlude	*>Label>Interlude	*>Label>Interlude	*>Label>Interlude	*>Label>Interlude
1r	.	1AM	newline	guitar	.	58.588	A:maj
=67	=67	=67	=67	=67	=67	=67	=67
1r	.	1AM	.	guitar	.	59.475	A:maj
=68	=68	=68	=68	=68	=68	=68	=68
1r	.	1DM	.	guitar	.	60.362	D:maj
=69	=69	=69	=69	=69	=69	=69	=69
1r	.	1DM	.	guitar	.	61.249	D:maj
=70	=70	=70	=70	=70	=70	=70	=70
1r	.	1AM	newline	guitar	.	62.136	A:maj
=71	=71	=71	=71	=71	=71	=71	=71
1r	.	1AM	.	guitar	.	63.025	A:maj
=72	=72	=72	=72	=72	=72	=72	=72
1r	.	1DM	.	guitar	.	63.915	D:maj
=73	=73	=73	=73	=73	=73	=73	=73
1r	.	1DM	.	guitar	.	64.805	D:maj
=74	=74	=74	=74	=74	=74	=74	=74
1r	.	1AM	newline	guitar	.	65.695	A:maj
=75	=75	=75	=75	=75	=75	=75	=75
1r	.	1AM	.	guitar	.	66.573	A:maj
=76	=76	=76	=76	=76	=76	=76	=76
1r	.	1DM	.	guitar	.	67.451	D:maj
=77	=77	=77	=77	=77	=77	=77	=77
1r	.	1DM	.	guitar	.	68.33	D:maj
=78	=78	=78	=78	=78	=78	=78	=78
1r	.	1AM	newline	guitar	.	69.208	A:maj
=79	=79	=79	=79	=79	=79	=79	=79
1r	.	1AM	.	guitar	.	70.07	A:maj
=80	=80	=80	=80	=80	=80	=80	=80
*>Letter>C	*>Letter>C	*>Letter>C	*>Letter>C	*>Letter>C	*>Letter>C	*>Letter>C	*>Letter>C
*>Label>Trans	*>Label>Trans	*>Label>Trans	*>Label>Trans	*>Label>Trans	*>Label>Trans	*>Label>Trans	*>Label>Trans
1r	.	1DM	newline	guitar	.	70.933	D:maj
=81	=81	=81	=81	=81	=81	=81	=81
1r	.	1DM	.	guitar	.	71.845	D:maj
=82	=82	=82	=82	=82	=82	=82	=82
1r	.	1DM	.	guitar	.	72.758	D:maj
=83	=83	=83	=83	=83	=83	=83	=83
2r	.	1DM	.	guitar	.	73.671	D:maj
4F#	But	.	.	.	.	.	.
4G	they	.	.	.	.	.	.
=84	=84	=84	=84	=84	=84	=84	=84
*>Letter>B	*>Letter>B	*>Letter>B	*>Letter>B	*>Letter>B	*>Letter>B	*>Letter>B	*>Letter>B
*>Label>Chorus	*>Label>Chorus	*>Label>Chorus	*>Label>Chorus	*>Label>Chorus	*>Label>Chorus	*>Label>Chorus	*>Label>Chorus
8A	could-	1DM	newline	voice	.	74.584	D:maj
4.A	-n't	.	.	.	.	.	.
2F#	stop	.	.	.	.	.	.
=85	=85	=85	=85	=85	=85	=85	=85
4A	Jack	1DM	.	voice	D	75.533	D:maj
[4F#	or	.	.	.	.	.	.
8F#]	_	.	.	.	.	.	.
8A	the	.	.	.	.	.	.
[4G	wa-	.	.	.	.	.	.
=86	=86	=86	=86	=86	=86	=86	=86
*M2/4	*	*M2/4	*M2/4	*M2/4	*	*M2/4	*M2/4
8G]	_	2AM	.	voice	.	76.483	A:maj
4C#	-ters	.	.	.	.	.	.
[8E	la-	.	.	.	(D	.	.
=87	=87	=87	=87	=87	=87	=87	=87
*M4/4	*	*M4/4	*M4/4	*M4/4	*	*M4/4	*M4/4
4E]	_	1DM	newline	guitar	.	76.957	D:maj
2.D	-pping	.	.	.	d)	.	.
=88	=88	=88	=88	=88	=88	=88	=88
1r	.	1DM	.	guitar	.	77.891	D:maj
=89	=89	=89	=89	=89	=89	=89	=89
1r	.	1DM	.	guitar	.	78.824	D:maj
=90	=90	=90	=90	=90	=90	=90	=90
2r	.	1DM	.	guitar	.	79.758	D:maj
4F#	and	.	.	.	.	.	.
4G	they	.	.	.	.	.	.
=91	=91	=91	=91	=91	=91	=91	=91
4A	coul-	1DM	newline	voice	.	80.692	D:maj
4A	-d'nt	.	.	.	.	.	.
4F#	pre-	.	.	.	.	.	.
[4A	-vent	.	.	.	.	.	.
=92	=92	=92	=92	=92	=92	=92	=92
4A]	_	1DM	.	voice	.	81.61	D:maj
2F#	Jack	.	.	.	D	.	.
4A	from	.	.	.	.	.	.
=93	=93	=93	=93	=93	=93	=93	=93
*M2/4	*	*M2/4	*M2/4	*M2/4	*	*M2/4	*M2/4
4G	fee-	2AM	.	voice	.	82.528	A:maj
4C#	-lin'	.	.	.	.	.	.
=94	=94	=94	=94	=94	=94	=94	=94
*M4/4	*	*M4/4	*M4/4	*M4/4	*	*M4/4	*M4/4
4E	ha-	1DM	newline	guitar	(D	82.987	D:maj
2D	-ppy	.	.	.	d)	.	.
4r	.	.	.	.	.	.	.
=95	=95	=95	=95	=95	=95	=95	=95
1r	.	1DM	.	guitar	.	83.921	D:maj
=96	=96	=96	=96	=96	=96	=96	=96
*>Letter>E	*>Letter>E	*>Letter>E	*>Letter>E	*>Letter>E	*>Letter>E	*>Letter>E	*>Letter>E
*>Label>Interlude	*>Label>Interlude	*>Label>Interlude	*>Label>Interlude	*>Label>Interlude	*>Label>Interlude	*>Label>Interlude	*>Label>Interlude
1r	.	1AM	newline	guitar	.	84.855	A:maj
=97	=97	=97	=97	=97	=97	=97	=97
1r	.	1AM	.	guitar	.	85.742	A:maj
=98	=98	=98	=98	=98	=98	=98	=98
1r	.	1DM	.	guitar	.	86.628	D:maj
=99	=99	=99	=99	=99	=99	=99	=99
1r	.	1DM	.	guitar	.	87.515	D:maj
=100	=100	=100	=100	=100	=100	=100	=100
1r	.	1AM	newline	guitar	.	88.401	A:maj
=101	=101	=101	=101	=101	=101	=101	=101
1r	.	1AM	.	guitar	.	89.29	A:maj
=102	=102	=102	=102	=102	=102	=102	=102
1r	.	1DM	.	guitar	.	90.178	D:maj
=103	=103	=103	=103	=103	=103	=103	=103
1r	.	1DM	.	guitar	.	91.067	D:maj
=104	=104	=104	=104	=104	=104	=104	=104
1r	.	1GM	newline	guitar	.	91.955	G:maj
=105	=105	=105	=105	=105	=105	=105	=105
1r	.	1GM	.	guitar	.	92.846	G:maj
=106	=106	=106	=106	=106	=106	=106	=106
1r	.	1AM	.	guitar	.	93.737	A:maj
=107	=107	=107	=107	=107	=107	=107	=107
1r	.	1DM	.	guitar	.	94.628	D:maj
=108	=108	=108	=108	=108	=108	=108	=108
1r	.	1GM	newline	guitar	.	95.519	G:maj
=109	=109	=109	=109	=109	=109	=109	=109
1r	.	1GM	.	guitar	.	96.415	G:maj
=110	=110	=110	=110	=110	=110	=110	=110
1r	.	1AM	newline	guitar	.	97.311	A:maj
=111	=111	=111	=111	=111	=111	=111	=111
1r	.	1AM	.	guitar	.	98.205	A:maj
=112	=112	=112	=112	=112	=112	=112	=112
1r	.	1AM	.	guitar	.	99.1	A:maj
=113	=113	=113	=113	=113	=113	=113	=113
1r	.	1AM	.	guitar	.	99.994	A:maj
=114	=114	=114	=114	=114	=114	=114	=114
1r	.	1AM	newline	guitar	.	100.889	A:maj
=115	=115	=115	=115	=115	=115	=115	=115
1r	.	1AM	.	guitar	.	101.804	A:maj
=116	=116	=116	=116	=116	=116	=116	=116
1r	.	1AM	.	guitar	.	102.719	A:maj
=117	=117	=117	=117	=117	=117	=117	=117
1r	.	1AM	.	guitar	.	103.635	A:maj
=118	=118	=118	=118	=118	=118	=118	=118
*>Letter>D	*>Letter>D	*>Letter>D	*>Letter>D	*>Letter>D	*>Letter>D	*>Letter>D	*>Letter>D
*>Label>Prechorus	*>Label>Prechorus	*>Label>Prechorus	*>Label>Prechorus	*>Label>Prechorus	*>Label>Prechorus	*>Label>Prechorus	*>Label>Prechorus
2b	Kids	1GM	newline	voice	.	104.55	G:maj
8b	could-	.	.	.	.	.	.
4.b	-n't	.	.	.	.	.	.
=119	=119	=119	=119	=119	=119	=119	=119
4b	hurt	1GM	.	voice	.	105.475	G:maj
4b	Jack	.	.	.	D	.	.
4r	.	.	.	.	.	.	.
4b	they	.	.	.	.	.	.
=120	=120	=120	=120	=120	=120	=120	=120
2cc#	tried	1AM	.	voice	C	106.4	A:maj
2b	tried	.	.	.	C	.	.
=121	=121	=121	=121	=121	=121	=121	=121
2a	tried	1AM	.	voice	C	107.325	A:maj
4r	.	.	.	.	.	.	.
4a	They	.	.	.	.	.	.
=122	=122	=122	=122	=122	=122	=122	=122
3b	dropped	1GM	newline	voice	.	108.25	G:maj
3b	things	.	.	.	.	.	.
3b	on	.	.	.	.	.	.
=123	=123	=123	=123	=123	=123	=123	=123
4b	his	1GM	.	voice	.	109.155	G:maj
4b	back	.	.	.	D	.	.
4r	.	.	.	.	.	.	.
4b	the	.	.	.	.	.	.
=124	=124	=124	=124	=124	=124	=124	=124
2cc#	lied	1AM	.	voice	.	110.059	A:maj
2b	lied	.	.	.	C	.	.
=125	=125	=125	=125	=125	=125	=125	=125
2a	lied	1AM	.	voice	C	110.964	A:maj
2g	lied	.	.	.	C	.	.
=126	=126	=126	=126	=126	=126	=126	=126
4g	lied	1AM	newline	guitar	C	111.869	A:maj
[2.a	_	.	.	.	.	.	.
=127	=127	=127	=127	=127	=127	=127	=127
1a]	_	1AM	.	guitar	.	112.763	A:maj
=128	=128	=128	=128	=128	=128	=128	=128
1r	.	1AM	.	guitar	.	113.658	A:maj
=129	=129	=129	=129	=129	=129	=129	=129
2r	.	1AM	.	guitar	.	114.553	A:maj
4r	.	.	.	.	.	.	.
*clefF4	*	*	*	*	*	*	*
4G	They	.	.	.	.	.	.
=130	=130	=130	=130	=130	=130	=130	=130
*>Letter>B	*>Letter>B	*>Letter>B	*>Letter>B	*>Letter>B	*>Letter>B	*>Letter>B	*>Letter>B
*>Label>Chorus	*>Label>Chorus	*>Label>Chorus	*>Label>Chorus	*>Label>Chorus	*>Label>Chorus	*>Label>Chorus	*>Label>Chorus
8A	could-	1DM	newline	voice	.	115.447	D:maj
4.A	-n't	.	.	.	.	.	.
4F#	stop	.	.	.	.	.	.
[4A	Jack	.	.	.	D	.	.
=131	=131	=131	=131	=131	=131	=131	=131
4A]	_	1DM	.	voice	.	116.372	D:maj
2F#	or	.	.	.	.	.	.
4A	the	.	.	.	.	.	.
=132	=132	=132	=132	=132	=132	=132	=132
*M2/4	*	*M2/4	*M2/4	*M2/4	*	*M2/4	*M2/4
4G	wa-	2AM	.	voice	.	117.297	A:maj
4C#	-ters	.	.	.	.	.	.
=133	=133	=133	=133	=133	=133	=133	=133
*M4/4	*	*M4/4	*M4/4	*M4/4	*	*M4/4	*M4/4
4E	la-	1DM	newline	guitar	(D	117.759	D:maj
2D	-pping	.	.	.	d)	.	.
4r	.	.	.	.	.	.	.
=134	=134	=134	=134	=134	=134	=134	=134
1r	.	1DM	.	guitar	.	118.689	D:maj
=135	=135	=135	=135	=135	=135	=135	=135
1r	.	1DM	.	guitar	.	119.619	D:maj
=136	=136	=136	=136	=136	=136	=136	=136
2r	.	1DM	.	guitar	.	120.549	D:maj
4F#	and	.	.	.	.	.	.
4G	they	.	.	.	.	.	.
=137	=137	=137	=137	=137	=137	=137	=137
4A	coul-	1DM	newline	voice	.	121.478	D:maj
4A	-d'nt	.	.	.	.	.	.
4F#	pre-	.	.	.	.	.	.
[4A	-vent	.	.	.	.	.	.
=138	=138	=138	=138	=138	=138	=138	=138
4A]	_	1DM	.	voice	.	122.403	D:maj
2F#	Jack	.	.	.	D	.	.
4A	from	.	.	.	.	.	.
=139	=139	=139	=139	=139	=139	=139	=139
*M2/4	*	*M2/4	*M2/4	*M2/4	*	*M2/4	*M2/4
4G	fee-	2AM	.	voice	.	123.327	A:maj
4C#	-lin'	.	.	.	.	.	.
=140	=140	=140	=140	=140	=140	=140	=140
*M4/4	*	*M4/4	*M4/4	*M4/4	*	*M4/4	*M4/4
4E	ha-	1DM	newline	guitar	(D	123.789	D:maj
2D	-ppy	.	.	.	d)	.	.
4r	.	.	.	.	.	.	.
=141	=141	=141	=141	=141	=141	=141	=141
1r	.	1DM	.	guitar	.	124.729	D:maj
=142	=142	=142	=142	=142	=142	=142	=142
*>Letter>A	*>Letter>A	*>Letter>A	*>Letter>A	*>Letter>A	*>Letter>A	*>Letter>A	*>Letter>A
*>Label>Coda	*>Label>Coda	*>Label>Coda	*>Label>Coda	*>Label>Coda	*>Label>Coda	*>Label>Coda	*>Label>Coda
1r	.	1N	newline	guitar	.	125.669	N.C.
=143	=143	=143	=143	=143	=143	=143	=143
1r	.	1N	.	guitar	.	126.604	N.C.
=144	=144	=144	=144	=144	=144	=144	=144
1r	.	1DM	.	guitar	.	127.539	D:maj
r;	.	1r;	.	r	.	129.059	N.C.
r;	.	1r;	.	r	.	131.704	N.C.
r;	.	1r;	.	r	.	132.101	N.C.
*-	*-	*-	*-	*-	*-	*-	*-
!!!BillboardChartDate: 1967/04/22
!!!BillboardPeak: 24
!!!BillboardWeeksOnChart: 9
!!!COC: The Who
!!!ENC: Nathaniel Condit-Schultz
!!!EST: Awating manual error checking and editing.
!!!OTL: Happy Jack
!!!RDF**chordsym: original McGill chord annotation + (implied pitch class set, with bass pitch in first position)
!!!RDF**harmony: **recip + pitch class of root + harmonic quality
!!!RDF**leadinstrument: original McGill primary instrumentation annotation
!!!RDF**phrase: newline = linebreak in original McGill transcription
!!!RDF**timestamp: McGill audio timestamp in seconds
!!!RDT: 2017/01/12/
!!!SampleActualRank: 83
!!!SampleID#: 0891
!!!SampleTargetRank: 82
